X: 97
T: In coena Domini. Lectio prima
C: Gaspar van Weerbeke
%%abc-version 2.0
%%abcx-abcm2ps-target-version 5.9.1 (29 Sep 2008)
%%abc-creator hum2abc beta
%%abcx-conversion-date 2022/03/06 13:05:59
%%abc-copyright Copyright 2018, Pavanello, Agnese
%%abc-edited-by Zybina, Karina
%%humdrum-veritas 2151639699
%%humdrum-veritas-data 1535274566
%%linebreak <none>
%%barnumbers 0
L: 1/4
M: 2/2
N: Derived from Gas0501a-In_coena_Domini_Lectio_prima.krn
%%staves [1 2 3 4]
V: 1 clef=treble
V: 2 clef=treble-8
V: 3 clef=treble-8
V: 4 clef=bass
K: C
[V:1] F4- | 
[V:2] c4 | 
[V:3] F4 | 
[V:4] F,4 | 
[V:1] F4 | 
[V:2] d4 | 
[V:3] A4 | 
[V:4] D,4 | 
[V:1] G4- | 
[V:2] e4- | 
[V:3] c4- | 
[V:4] C,4- | 
[V:1] G4 | 
[V:2] e4 | 
[V:3] c4 | 
[V:4] C,4 | 
[V:1] A4- | 
[V:2] f4- | 
[V:3] c4- | 
[V:4] F,4- | 
[V:1] A2A2 | 
[V:2] f2f2 | 
[V:3] c2c2 | 
[V:4] F,2F,2 | 
[V:1] A4 | 
[V:2] f4 | 
[V:3] c4 | 
[V:4] F,4 | 
[V:1] z4 | 
[V:2] z4 | 
[V:3] z4 | 
[V:4] z4 | 
[V:1] A2A2 | 
[V:2] e2e2 | 
[V:3] c2c2 | 
[V:4] A,2A,2 | 
[V:1] A4- | 
[V:2] e4- | 
[V:3] c4- | 
[V:4] A,4- | 
[V:1] A2A2 | 
[V:2] e2f2 | 
[V:3] c2d2 | 
[V:4] A,2D,2 | 
[V:1] A4 | 
[V:2] f4 | 
[V:3] d4 | 
[V:4] D,4 | 
[V:1] G2A2 | 
[V:2] e2c2 | 
[V:3] B2A2 | 
[V:4] E,2F,2 | 
[V:1] _B4 | 
[V:2] f4 | 
[V:3] d4 | 
[V:4] _B,,4 | 
[V:1] A4 | 
[V:2] f4 | 
[V:3] c4 | 
[V:4] F,4 | 
[V:1] G2A2- | 
[V:2] d2f2 | 
[V:3] _B2c2- | 
[V:4] G,2F,2- | 
[V:1] A2G2 | 
[V:2] f2ec- | 
[V:3] c2c2 | 
[V:4] F,2C,2 | 
[V:1] F4 | 
[V:2] cB/A/AB | 
[V:3] A2F2 | 
[V:4] D,4 | 
[V:1] E4 | 
[V:2] c4- | 
[V:3] G4 | 
[V:4] C,4 | 
[V:1] F4 ||  
[V:2] c4 ||  
[V:3] F4 ||  
[V:4] F,4 ||  
[V:1] A4 | 
[V:2] f4 | 
[V:3] F4 | 
[V:4] z4 | 
[V:1] _B3A | 
[V:2] d4- | 
[V:3] G3A | 
[V:4] z4 | 
[V:1] G2F2 | 
[V:2] d4 | 
[V:3] _B2d2 | 
[V:4] z4 | 
[V:1] G4 | 
[V:2] e4 | 
[V:3] c4 | 
[V:4] z4 | 
[V:1] F4 ||  
[V:2] f4 ||  
[V:3] F4 ||  
[V:4] z4 ||  
[V:1] F4 | 
[V:2] d4 | 
[V:3] A4 | 
[V:4] D,4 | 
[V:1] G4 | 
[V:2] e4 | 
[V:3] c4 | 
[V:4] C,4 | 
[V:1] A4 | 
[V:2] f4 | 
[V:3] c4 | 
[V:4] F,4 | 
[V:1] A2A2 | 
[V:2] f2f2 | 
[V:3] c2c2 | 
[V:4] F,2F,2 | 
[V:1] A4 | 
[V:2] f4 | 
[V:3] c4 | 
[V:4] F,4 | 
[V:1] A2A2- | 
[V:2] f2f2- | 
[V:3] d2d2- | 
[V:4] D,2D,2- | 
[V:1] A2A2 | 
[V:2] f2f2 | 
[V:3] d2d2 | 
[V:4] D,2D,2 | 
[V:1] G4 | 
[V:2] e4 | 
[V:3] B4 | 
[V:4] E,4 | 
[V:1] _B4 | 
[V:2] d4 | 
[V:3] z2d2- | 
[V:4] G,4 | 
[V:1] A4 | 
[V:2] f4 | 
[V:3] d2d2 | 
[V:4] D,4 | 
[V:1] G2G2 | 
[V:2] e2e2 | 
[V:3] B2c2 | 
[V:4] E,2C,2 | 
[V:1] G4 | 
[V:2] e4 | 
[V:3] B4 | 
[V:4] E,4 | 
[V:1] A4 |]  
[V:2] e4 |]  
[V:3] A4 |]  
[V:4] A,,4 |]  
[V:1] F4 [I:setbarnb 40]| 
[V:2] c4 | 
[V:3] c4 | 
[V:4] A,4 | 
[V:1] G4 | 
[V:2] d4 | 
[V:3] _B4 | 
[V:4] G,4 | 
[V:1] A4 | 
[V:2] f4 | 
[V:3] c4 | 
[V:4] F,4 | 
[V:1] F2E2 | 
[V:2] c2c2 | 
[V:3] c2c2 | 
[V:4] A,2A,2 | 
[V:1] A3A | 
[V:2] e3e | 
[V:3] c3c | 
[V:4] A,3A, | 
[V:1] A2z2 | 
[V:2] e2z2 | 
[V:3] c2z2 | 
[V:4] A,2z2 | 
[V:1] _B3A | 
[V:2] z2d2 | 
[V:3] G3A | 
[V:4] G,3F, | 
[V:1] G2A2- | 
[V:2] ee2e- | 
[V:3] B2c2- | 
[V:4] E,2z2 | 
[V:1] AA_B2 | 
[V:2] ef2e | 
[V:3] cAG2 | 
[V:4] z4 | 
[V:1] A4 | 
[V:2] f4 | 
[V:3] F4 | 
[V:4] z4 | 
[V:1] z4 | 
[V:2] z4 | 
[V:3] z4 | 
[V:4] z4 | 
[V:1] F4 | 
[V:2] A4 | 
[V:3] F4 | 
[V:4] D,4 | 
[V:1] E4 | 
[V:2] c4 | 
[V:3] G4 | 
[V:4] C,4 | 
[V:1] F2F2- | 
[V:2] d2d2- | 
[V:3] _B2_B2- | 
[V:4] _B,,2B,,2- | 
[V:1] F2F2 | 
[V:2] d2d2 | 
[V:3] B2A2 | 
[V:4] B,,2D,2 | 
[V:1] G4 | 
[V:2] d4 | 
[V:3] _B4 | 
[V:4] G,4 | 
[V:1] A4 | 
[V:2] d4 | 
[V:3] A4 | 
[V:4] D,4 | 
[V:1] z4 | 
[V:2] z4 | 
[V:3] z4 | 
[V:4] z4 | 
[V:1] D3E | 
[V:2] z4 | 
[V:3] _B3_B | 
[V:4] G,3G, | 
[V:1] F4 | 
[V:2] d3d | 
[V:3] A4 | 
[V:4] D,4 | 
[V:1] G2A2- | 
[V:2] d2f2- | 
[V:3] _B2c2- | 
[V:4] G,2F,2 | 
[V:1] A2G2- | 
[V:2] fec2 | 
[V:3] c2G2 | 
[V:4] F,2E,2 | 
[V:1] G2^F2 | 
[V:2] d4 | 
[V:3] A4 | 
[V:4] D,4 | 
[V:1] G4 | 
[V:2] d4 | 
[V:3] G4 | 
[V:4] z2G,2 | 
[V:1] A3c | 
[V:2] f4 | 
[V:3] c4 | 
[V:4] F,2A,2 | 
[V:1] _B3A | 
[V:2] g3f/e/ | 
[V:3] d3c | 
[V:4] G,4 | 
[V:1] G2A2- | 
[V:2] d2c2 | 
[V:3] _B2A2 | 
[V:4] z2F,2 | 
[V:1] A2F2- | 
[V:2] d>cA3/B/ | 
[V:3] F4 | 
[V:4] D,4 | 
[V:1] F2E2 | 
[V:2] c4- | 
[V:3] G4 | 
[V:4] C,4 | 
[V:1] F4 ||  
[V:2] c4 ||  
[V:3] F4 ||  
[V:4] F,4 ||  
[V:1] _B4 | 
[V:2] z4 | 
[V:3] d4- | 
[V:4] _B,,4 | 
[V:1] A4 | 
[V:2] z4 | 
[V:3] d4 | 
[V:4] D,4 | 
[V:1] G4 | 
[V:2] z4 | 
[V:3] _B3A/G/ | 
[V:4] _E,4 | 
[V:1] A3G/F/ | 
[V:2] z4 | 
[V:3] F4 | 
[V:4] D,4 | 
[V:1] E4 | 
[V:2] z4 | 
[V:3] G4 | 
[V:4] C,4 | 
[V:1] F4 ||  
[V:2] z4 ||  
[V:3] F4 ||  
[V:4] F,4 ||  
[V:1] F4 | 
[V:2] z4 | 
[V:3] F4 | 
[V:4] z4 | 
[V:1] D4 | 
[V:2] g4 | 
[V:3] G4 | 
[V:4] z4 | 
[V:1] C4 | 
[V:2] e2e2 | 
[V:3] A4 | 
[V:4] z4 | 
[V:1] F4 | 
[V:2] d4 | 
[V:3] _B4 | 
[V:4] z4 | 
[V:1] E2F2 | 
[V:2] c2c2 | 
[V:3] c2A2 | 
[V:4] z4 | 
[V:1] G4 | 
[V:2] d4 | 
[V:3] _B4 | 
[V:4] z4 | 
[V:1] A4 | 
[V:2] e4 | 
[V:3] A4 | 
[V:4] z4 | 
[V:1] z2A2 | 
[V:2] z2e2 | 
[V:3] z2c2 | 
[V:4] z2A,2 | 
[V:1] G3A | 
[V:2] d3e | 
[V:3] d3c | 
[V:4] _B,3A, | 
[V:1] _B4 | 
[V:2] g2e2 | 
[V:3] d2_B2 | 
[V:4] G,4 | 
[V:1] A2A2 | 
[V:2] f2f2 | 
[V:3] c2c2 | 
[V:4] F,2F,2 | 
[V:1] z2A2 | 
[V:2] z2f2 | 
[V:3] z2c2 | 
[V:4] z2A,2 | 
[V:1] _B2c2- | 
[V:2] d2f2- | 
[V:3] d2A2- | 
[V:4] G,2F,2- | 
[V:1] c2_B2 | 
[V:2] f2d2 | 
[V:3] A2G2 | 
[V:4] F,2G,2 | 
[V:1] A2A2- | 
[V:2] f4 | 
[V:3] c2d2 | 
[V:4] F,2D,2 | 
[V:1] A2^G2 | 
[V:2] e4 | 
[V:3] B4 | 
[V:4] E,4 | 
[V:1] A4 ||  
[V:2] e4 ||  
[V:3] A4 ||  
[V:4] A,,4 ||  
[V:1] F4 | 
[V:2] c4 | 
[V:3] z4 | 
[V:4] A,4 | 
[V:1] G4 | 
[V:2] d4 | 
[V:3] z4 | 
[V:4] _B,4 | 
[V:1] A4 | 
[V:2] e4 | 
[V:3] c4 | 
[V:4] A,4 | 
[V:1] A2A2 | 
[V:2] f2f2 | 
[V:3] d2d2 | 
[V:4] D,2D,2 | 
[V:1] A4- | 
[V:2] f4 | 
[V:3] c2c2 | 
[V:4] F,4- | 
[V:1] A2_B2 | 
[V:2] f2d2 | 
[V:3] d2d2 | 
[V:4] F,2G,2 | 
[V:1] _B4 | 
[V:2] g4 | 
[V:3] d4 | 
[V:4] G,4 | 
[V:1] _A4 | 
[V:2] f4 | 
[V:3] d4 | 
[V:4] D,4 | 
[V:1] z2G2 | 
[V:2] z2d2 | 
[V:3] z2G2 | 
[V:4] z4 | 
[V:1] F3F | 
[V:2] c3c | 
[V:3] A3A | 
[V:4] z4 | 
[V:1] G4 | 
[V:2] d2e2 | 
[V:3] G2G2 | 
[V:4] z2C,2 | 
[V:1] F2E2 | 
[V:2] zAc2- | 
[V:3] D2G2- | 
[V:4] D,2C,2 | 
[V:1] F4 | 
[V:2] cB/A/B2 | 
[V:3] GF/E/F2 | 
[V:4] D,4 | 
[V:1] E4 | 
[V:2] c4 | 
[V:3] G4 | 
[V:4] C,4 | 
[V:1] z4 | 
[V:2] z4 | 
[V:3] z4 | 
[V:4] z4 | 
[V:1] z4 | 
[V:2] A4 | 
[V:3] F4 | 
[V:4] D,4 | 
[V:1] z4 | 
[V:2] d4 | 
[V:3] A4 | 
[V:4] D,4 | 
[V:1] z4 | 
[V:2] d2d2- | 
[V:3] A2_B2- | 
[V:4] D,2G,2- | 
[V:1] z4 | 
[V:2] d2d2 | 
[V:3] B2A2 | 
[V:4] G,2A,2 | 
[V:1] z4 | 
[V:2] d4 | 
[V:3] G4 | 
[V:4] _B,4 | 
[V:1] z4 | 
[V:2] c4 | 
[V:3] A4 | 
[V:4] A,4 | 
[V:1] z2A2 | 
[V:2] z2f2 | 
[V:3] z2c2 | 
[V:4] z2A,2 | 
[V:1] _B4- | 
[V:2] g4- | 
[V:3] d4- | 
[V:4] G,4- | 
[V:1] B2A2 | 
[V:2] g2e2 | 
[V:3] d2c2 | 
[V:4] G,2A,2 | 
[V:1] G4 | 
[V:2] e4 | 
[V:3] B4 | 
[V:4] E,4 | 
[V:1] A4 | 
[V:2] c4 | 
[V:3] A4 | 
[V:4] F,4 | 
[V:1] E4 | 
[V:2] c4 | 
[V:3] A4 | 
[V:4] z4 | 
[V:1] F4 | 
[V:2] d4- | 
[V:3] A4 | 
[V:4] D,4 | 
[V:1] G2G2- | 
[V:2] d2e2- | 
[V:3] B2c2- | 
[V:4] G,2C,2- | 
[V:1] G2G2 | 
[V:2] e2g2 | 
[V:3] c2c2 | 
[V:4] C,2E,2 | 
[V:1] A2A2 | 
[V:2] f2f2 | 
[V:3] c2c2 | 
[V:4] F,2F,2 | 
[V:1] A2G2- | 
[V:2] f2d2 | 
[V:3] c2G2 | 
[V:4] F,2G,2 | 
[V:1] G^F/E/F2 | 
[V:2] d4 | 
[V:3] A4 | 
[V:4] D,4 | 
[V:1] G4 | 
[V:2] B4 | 
[V:3] G4 | 
[V:4] E,4 | 
[V:1] c3_B/A/ | 
[V:2] e4 | 
[V:3] z2G2 | 
[V:4] C,4- | 
[V:1] G4 | 
[V:2] e3f | 
[V:3] c3_B/A/ | 
[V:4] C,4 | 
[V:1] _B3A | 
[V:2] g3f/e/ | 
[V:3] G4 | 
[V:4] z4 | 
[V:1] G2F2 | 
[V:2] d2c2- | 
[V:3] _B2A2 | 
[V:4] z2F,2 | 
[V:1] E4 | 
[V:2] c4- | 
[V:3] G4 | 
[V:4] C,2C,2 | 
[V:1] F4 ||  
[V:2] c4 ||  
[V:3] F4 ||  
[V:4] F,4 ||  
[V:1] F4 | 
[V:2] d4 | 
[V:3] A4 | 
[V:4] D,4 | 
[V:1] G4 | 
[V:2] d3_B | 
[V:3] _B4 | 
[V:4] G,4 | 
[V:1] A4 | 
[V:2] c3f | 
[V:3] A4 | 
[V:4] F,4 | 
[V:1] _B4 | 
[V:2] d3e | 
[V:3] z2G2 | 
[V:4] G,4 | 
[V:1] A2A2 | 
[V:2] f2f2 | 
[V:3] c2c2 | 
[V:4] F,2F,2 | 
[V:1] A4 | 
[V:2] f4 | 
[V:3] d4 | 
[V:4] D,4 | 
[V:1] z4 | 
[V:2] z4 | 
[V:3] z4 | 
[V:4] z4 | 
[V:1] A4 | 
[V:2] f4 | 
[V:3] c4 | 
[V:4] F,4 | 
[V:1] G2A2 | 
[V:2] g2f2 | 
[V:3] c2c2 | 
[V:4] E,2F,2 | 
[V:1] c3_B/A/ | 
[V:2] f4 | 
[V:3] A4 | 
[V:4] F,4 | 
[V:1] G2A2- | 
[V:2] g2f2 | 
[V:3] c2d2 | 
[V:4] E,2D,2 | 
[V:1] A2^G2 | 
[V:2] e4 | 
[V:3] B4 | 
[V:4] E,4 | 
[V:1] A4 | 
[V:2] e4 | 
[V:3] A4 | 
[V:4] A,,4 | 
[V:1] z4 | 
[V:2] z4 | 
[V:3] z4 | 
[V:4] z4 | 
[V:1] F2G2- | 
[V:2] d2B2- | 
[V:3] A2G2- | 
[V:4] D,2E,2- | 
[V:1] GGG2 | 
[V:2] BGG2 | 
[V:3] GGc2 | 
[V:4] E,E,C,2 | 
[V:1] z2A2 | 
[V:2] z2e2 | 
[V:3] z2c2 | 
[V:4] z4 | 
[V:1] _B3A | 
[V:2] f3e | 
[V:3] d3c | 
[V:4] z4 | 
[V:1] G2F2 | 
[V:2] e2A2 | 
[V:3] c2c2 | 
[V:4] C,2F,2 | 
[V:1] E2F2 | 
[V:2] z2d2 | 
[V:3] c2A2 | 
[V:4] C,2D,2 | 
[V:1] G2G2- | 
[V:2] B3G | 
[V:3] G2B2 | 
[V:4] E,2G,2 | 
[V:1] G2^F2 | 
[V:2] d4 | 
[V:3] A4 | 
[V:4] D,4 | 
[V:1] G4 | 
[V:2] B4 | 
[V:3] G4 | 
[V:4] z2G,2 | 
[V:1] z4 | 
[V:2] e4 | 
[V:3] c4 | 
[V:4] A,4 | 
[V:1] A4 | 
[V:2] f4 | 
[V:3] d4 | 
[V:4] D,4 | 
[V:1] _B3A/G/ | 
[V:2] g4 | 
[V:3] G4 | 
[V:4] z4 | 
[V:1] F2E2 | 
[V:2] d2e2 | 
[V:3] A4 | 
[V:4] D,2C,2 | 
[V:1] F2F2- | 
[V:2] A3B | 
[V:3] F4 | 
[V:4] D,4 | 
[V:1] F2E2 | 
[V:2] c4- | 
[V:3] G4 | 
[V:4] C,4 | 
[V:1] F4 |]  
[V:2] c4 |]  
[V:3] F4 |]  
[V:4] F,4 |]  


